packages/icons/brands/Solana.svg

<svg width="18" height="18" viewBox="0 0 18 18" xmlns="http://www.w3.org/2000/svg">
<g>
        <path
            d="M9 18C13.9706 18 18 13.9706 18 9C18 4.02944 13.9706 0 9 0C4.02944 0 0 4.02944 0 9C0 13.9706 4.02944 18 9 18Z"
            fill="black"
        />
        <path
            d="M14.1959 11.9709L12.4626 13.7524C12.4249 13.7911 12.3793 13.822 12.3287 13.8431C12.278 13.8642 12.2233 13.875 12.1681 13.875H3.95123C3.91202 13.875 3.87367 13.864 3.84088 13.8434C3.8081 13.8228 3.7823 13.7935 3.76668 13.759C3.75105 13.7246 3.74627 13.6865 3.75291 13.6494C3.75956 13.6124 3.77736 13.578 3.8041 13.5506L5.53875 11.769C5.57634 11.7304 5.62178 11.6996 5.67227 11.6785C5.72277 11.6574 5.77725 11.6465 5.83234 11.6464H14.0488C14.088 11.6464 14.1263 11.6574 14.1591 11.678C14.1919 11.6986 14.2177 11.728 14.2334 11.7624C14.249 11.7969 14.2537 11.835 14.2471 11.872C14.2404 11.909 14.2227 11.9434 14.1959 11.9709ZM12.4626 8.38328C12.4249 8.34458 12.3793 8.31373 12.3287 8.29264C12.278 8.27156 12.2233 8.26069 12.1681 8.26072H3.95123C3.91202 8.26072 3.87367 8.27169 3.84088 8.2923C3.8081 8.31291 3.7823 8.34224 3.76668 8.3767C3.75105 8.41116 3.74627 8.44925 3.75291 8.48628C3.75956 8.5233 3.77736 8.55767 3.8041 8.58515L5.53875 10.3667C5.57634 10.4053 5.62178 10.4361 5.67227 10.4572C5.72277 10.4783 5.77725 10.4892 5.83234 10.4893H14.0488C14.088 10.4893 14.1263 10.4783 14.1591 10.4577C14.1919 10.4371 14.2177 10.4078 14.2334 10.3733C14.249 10.3388 14.2537 10.3008 14.2471 10.2637C14.2404 10.2267 14.2227 10.1923 14.1959 10.1649L12.4626 8.38328ZM3.95123 7.10357H12.1681C12.2233 7.10359 12.278 7.09273 12.3287 7.07164C12.3793 7.05056 12.4249 7.0197 12.4626 6.981L14.1959 5.19943C14.2227 5.17196 14.2404 5.13759 14.2471 5.10056C14.2537 5.06353 14.249 5.02545 14.2334 4.99099C14.2177 4.95652 14.1919 4.92719 14.1591 4.90658C14.1263 4.88598 14.088 4.875 14.0488 4.875H5.83234C5.77725 4.87509 5.72277 4.88601 5.67227 4.9071C5.62178 4.92818 5.57634 4.95897 5.53875 4.99757L3.80455 6.77914C3.77783 6.80658 3.76004 6.84092 3.75338 6.8779C3.74672 6.91489 3.75146 6.95295 3.76703 6.98739C3.78261 7.02184 3.80833 7.05117 3.84105 7.07181C3.87377 7.09245 3.91206 7.10348 3.95123 7.10357Z"
            fill="url(#paint0_linear_46_21879)"
        />
        <defs>
            <linearGradient
                id="paint0_linear_46_21879"
                x1="4.63632"
                y1="14.0895"
                x2="12.8454"
                y2="4.43357"
                gradient-units="userSpaceOnUse">
                <stop offset="0.08" stop-color="#9945FF" />
                <stop offset="0.3" stop-color="#8752F3" />
                <stop offset="0.5" stop-color="#5497D5" />
                <stop offset="0.6" stop-color="#43B4CA" />
                <stop offset="0.72" stop-color="#28E0B9" />
                <stop offset="0.97" stop-color="#19FB9B" />
            </linearGradient>
        </defs>
    </g>
</svg>

<svg xmlns="http://www.w3.org/2000/svg" width="18" height="18">
    <path d="M9 18A9 9 0 1 0 9 0a9 9 0 0 0 0 18Z"/>
    <path fill="url(#Solana_svg__a)" d="m14.196 11.97-1.733 1.782a.404.404 0 0 1-.295.123H3.951a.208.208 0 0 1-.11-.032.195.195 0 0 1-.074-.084.186.186 0 0 1 .037-.208l1.735-1.782a.403.403 0 0 1 .293-.123h8.217c.039 0 .077.011.11.032a.186.186 0 0 1 .037.293Zm-1.733-3.587a.404.404 0 0 0-.295-.122H3.951a.208.208 0 0 0-.11.031.195.195 0 0 0-.074.085.186.186 0 0 0 .037.208l1.735 1.782a.403.403 0 0 0 .293.122h8.217c.039 0 .077-.01.11-.031a.196.196 0 0 0 .074-.085.186.186 0 0 0-.037-.208l-1.733-1.782ZM3.95 7.103h8.217a.418.418 0 0 0 .295-.122l1.733-1.782a.186.186 0 0 0 .037-.208.196.196 0 0 0-.074-.084.208.208 0 0 0-.11-.032H5.832a.417.417 0 0 0-.293.123L3.805 6.779a.186.186 0 0 0-.038.208.195.195 0 0 0 .074.085c.033.02.071.031.11.032Z"/>
    <defs>
        <linearGradient id="Solana_svg__a" x1="4.636" x2="12.845" y1="14.089" y2="4.434">
            <stop offset=".08" stop-color="#9945FF"/>
            <stop offset=".3" stop-color="#8752F3"/>
            <stop offset=".5" stop-color="#5497D5"/>
            <stop offset=".6" stop-color="#43B4CA"/>
            <stop offset=".72" stop-color="#28E0B9"/>
            <stop offset=".97" stop-color="#19FB9B"/>
        </linearGradient>
    </defs>
</svg>
